icons/svg/briefcase.svg

﻿<?xml version="1.0" encoding="utf-8"?>
<!DOCTYPE svg PUBLIC "-//W3C//DTD SVG 1.1//EN" "http://www.w3.org/Graphics/SVG/1.1/DTD/svg11.dtd">
<svg xmlns="http://www.w3.org/2000/svg" xmlns:xlink="http://www.w3.org/1999/xlink" version="1.1" baseProfile="full" width="24" height="24" viewBox="0 0 24.00 24.00" enable-background="new 0 0 24.00 24.00" xml:space="preserve">
	<path fill="#000000" fill-opacity="1" stroke-width="0.2" stroke-linejoin="round" d="M 13.9994,5.99805L 9.99939,5.99805L 9.99939,3.99805L 13.9994,3.99805M 19.9994,5.99805L 15.9994,5.99805L 15.9994,3.99805L 13.9994,1.99805L 9.99939,1.99805L 7.99939,3.99805L 7.99939,5.99805L 3.99939,5.99805C 2.89438,5.99805 2.0094,6.89203 2.0094,7.99805L 1.99939,18.998C 1.99939,20.1041 2.89438,20.998 3.99939,20.998L 19.9994,20.998C 21.1044,20.998 21.9994,20.1041 21.9994,18.998L 21.9994,7.99805C 21.9994,6.89203 21.1044,5.99805 19.9994,5.99805 Z "/>
</svg>

<svg xmlns="http://www.w3.org/2000/svg" version="1.1" baseProfile="full" width="24" height="24" viewBox="0 0 24.00 24.00" xml:space="preserve"><path fill="#000" fill-opacity="1" stroke-width=".2" stroke-linejoin="round" d="M14 5.998h-4v-2h4m6 2h-4v-2l-2-2h-4l-2 2v2H4c-1.106 0-1.99.894-1.99 2l-.01 11c0 1.106.894 2 2 2h16c1.104 0 2-.894 2-2v-11c0-1.106-.896-2-2-2z"/></svg>
